X:21
T:Kitchen Girl
M:2/2
L:1/8
K:A mix
"A"a4 "G"g4|"A"ef ed c2 cd|e2 f2 ga ba|"G"g2 e2 e2 (3efg)|
"A"a4 "G"g4|"A"ef ed c2 ef|"G"g2 B2 ef ed|"A"c2 A2 A4:|K:Amin
"Am"AB cA "G"BA G2|"Am"AB AG E2 EG|"C"A2 B2 "D"cd|"E"e4 edcB|
"Am"AB cA "G"BA G2|"Am"AB AG E2 AB|"C"cB Ac "G"BA G2|"Am"A4 A4:|
